packages/foundations/assets/icons/functional/images/file/notebook.svg

<svg xmlns="http://www.w3.org/2000/svg" width="32" height="32" fill="none"><path fill="#1A1C1F" fill-rule="evenodd" d="M8.913 2.111c-.397.107-.943.403-1.272.691-.378.331-.78.952-.959 1.48l-.148.438-.016 2.653-.016 2.654h-.613c-.702 0-.877.052-1.128.338-.244.278-.307.557-.206.906.159.548.498.729 1.363.729h.589v8h-.589c-.636 0-.817.047-1.105.29a.85.85 0 0 0-.256.432c-.112.387-.037.666.262.963.262.262.549.342 1.234.342h.448l.017 2.546.017 2.547.144.427c.377 1.118 1.182 1.945 2.243 2.305L9.36 30h7.653c8.404 0 7.89.02 8.64-.333.548-.257 1.173-.884 1.451-1.454.425-.87.389.247.389-12.133V5.04l-.123-.424c-.194-.672-.457-1.119-.942-1.604-.482-.482-.974-.773-1.527-.903-.502-.119-15.547-.117-15.988.002M12.48 16v12l-1.427-.001c-1.273-.001-1.45-.012-1.644-.1-.276-.125-.571-.428-.727-.746-.121-.244-.122-.27-.137-2.679l-.016-2.432.612-.027c.536-.024.641-.045.851-.167a.974.974 0 0 0-.096-1.748c-.166-.075-.349-.098-.789-.099L8.533 20v-8l.574-.001c.651-.002.908-.083 1.144-.363.415-.493.273-1.223-.291-1.496-.195-.095-.331-.113-.83-.113h-.597l.001-2.44c0-1.433.022-2.518.052-2.629.095-.342.35-.677.625-.82.255-.133.262-.133 1.762-.136L12.48 4zM24.613 4.127c.434.205.715.587.826 1.122.038.186.052 3.648.042 10.991l-.014 10.72-.123.267c-.154.334-.35.545-.624.672-.203.094-.46.099-5.213.1l-5 .001V4l4.92.001h4.92zm-7.431 6.913c-.202.047-.459.271-.582.507-.047.089-.084.29-.084.453 0 .433.249.816.621.957.099.037 1.076.056 2.863.056s2.764-.019 2.863-.056c.372-.141.621-.524.621-.957 0-.47-.287-.869-.691-.963-.252-.058-5.362-.056-5.611.003m0 4c-.202.047-.459.271-.582.507-.047.089-.084.29-.084.453 0 .433.249.816.621.957.099.037 1.076.056 2.863.056s2.764-.019 2.863-.056c.372-.141.621-.524.621-.957 0-.47-.287-.869-.691-.963-.252-.058-5.362-.056-5.611.003m0 4c-.202.047-.459.271-.582.507-.047.089-.084.29-.084.453 0 .433.249.816.621.957.099.037 1.076.056 2.863.056s2.764-.019 2.863-.056c.372-.141.621-.524.621-.957 0-.47-.287-.869-.691-.963-.252-.058-5.362-.056-5.611.003"/></svg>

<svg width="32" height="32" viewBox="0 0 32 32" fill="none" xmlns="http://www.w3.org/2000/svg"><path d="M8.913 2.111 C 8.516 2.218,7.970 2.514,7.641 2.802 C 7.263 3.133,6.861 3.754,6.682 4.282 L 6.534 4.720 6.518 7.373 L 6.502 10.027 5.889 10.027 C 5.187 10.027,5.012 10.079,4.761 10.365 C 4.517 10.643,4.454 10.922,4.555 11.271 C 4.714 11.819,5.053 12.000,5.918 12.000 L 6.507 12.000 6.507 16.000 L 6.507 20.000 5.918 20.000 C 5.282 20.000,5.101 20.047,4.813 20.290 C 4.696 20.389,4.614 20.528,4.557 20.722 C 4.445 21.109,4.520 21.388,4.819 21.685 C 5.081 21.947,5.368 22.027,6.053 22.027 L 6.501 22.027 6.518 24.573 L 6.535 27.120 6.679 27.547 C 7.056 28.665,7.861 29.492,8.922 29.852 L 9.360 30.000 17.013 30.000 C 25.417 30.000,24.903 30.020,25.653 29.667 C 26.201 29.410,26.826 28.783,27.104 28.213 C 27.529 27.343,27.493 28.460,27.493 16.080 L 27.493 5.040 27.370 4.616 C 27.176 3.944,26.913 3.497,26.428 3.012 C 25.946 2.530,25.454 2.239,24.901 2.109 C 24.399 1.990,9.354 1.992,8.913 2.111 M12.480 16.000 L 12.480 28.000 11.053 27.999 C 9.780 27.998,9.603 27.987,9.409 27.899 C 9.133 27.774,8.838 27.471,8.682 27.153 C 8.561 26.909,8.560 26.883,8.545 24.474 L 8.529 22.042 9.141 22.015 C 9.677 21.991,9.782 21.970,9.992 21.848 C 10.699 21.433,10.645 20.440,9.896 20.100 C 9.730 20.025,9.547 20.002,9.107 20.001 L 8.533 20.000 8.533 16.000 L 8.533 12.000 9.107 11.999 C 9.758 11.997,10.015 11.916,10.251 11.636 C 10.666 11.143,10.524 10.413,9.960 10.140 C 9.765 10.045,9.629 10.027,9.130 10.027 L 8.533 10.027 8.534 7.587 C 8.534 6.154,8.556 5.069,8.586 4.958 C 8.681 4.616,8.936 4.281,9.211 4.138 C 9.466 4.005,9.473 4.005,10.973 4.002 L 12.480 4.000 12.480 16.000 M24.613 4.127 C 25.047 4.332,25.328 4.714,25.439 5.249 C 25.477 5.435,25.491 8.897,25.481 16.240 L 25.467 26.960 25.344 27.227 C 25.190 27.561,24.994 27.772,24.720 27.899 C 24.517 27.993,24.260 27.998,19.507 27.999 L 14.507 28.000 14.507 16.000 L 14.507 4.000 19.427 4.001 L 24.347 4.001 24.613 4.127 M17.182 11.040 C 16.980 11.087,16.723 11.311,16.600 11.547 C 16.553 11.636,16.516 11.837,16.516 12.000 C 16.516 12.433,16.765 12.816,17.137 12.957 C 17.236 12.994,18.213 13.013,20.000 13.013 C 21.787 13.013,22.764 12.994,22.863 12.957 C 23.235 12.816,23.484 12.433,23.484 12.000 C 23.484 11.530,23.197 11.131,22.793 11.037 C 22.541 10.979,17.431 10.981,17.182 11.040 M17.182 15.040 C 16.980 15.087,16.723 15.311,16.600 15.547 C 16.553 15.636,16.516 15.837,16.516 16.000 C 16.516 16.433,16.765 16.816,17.137 16.957 C 17.236 16.994,18.213 17.013,20.000 17.013 C 21.787 17.013,22.764 16.994,22.863 16.957 C 23.235 16.816,23.484 16.433,23.484 16.000 C 23.484 15.530,23.197 15.131,22.793 15.037 C 22.541 14.979,17.431 14.981,17.182 15.040 M17.182 19.040 C 16.980 19.087,16.723 19.311,16.600 19.547 C 16.553 19.636,16.516 19.837,16.516 20.000 C 16.516 20.433,16.765 20.816,17.137 20.957 C 17.236 20.994,18.213 21.013,20.000 21.013 C 21.787 21.013,22.764 20.994,22.863 20.957 C 23.235 20.816,23.484 20.433,23.484 20.000 C 23.484 19.530,23.197 19.131,22.793 19.037 C 22.541 18.979,17.431 18.981,17.182 19.040 " fill="#1A1C1F" stroke="none" fill-rule="evenodd"></path></svg>
